app/src/main/assets/symbols/transport/parking.svg

<?xml version="1.0" encoding="UTF-8" standalone="no"?>
<svg xmlns="http://www.w3.org/2000/svg" version="1.0" width="580" height="580">
 <metadata id="metadata10"/>
 <path id="path4151" d="M 155 122.65039 C 148.73213 122.65123 143.65123 127.73213 143.65039 134 L 143.65039 495 C 143.65057 500.20836 147.1943 504.74915 151.29688 505.59961 L 203.09961 506.44922 C 209.36748 506.44838 214.44838 501.36748 214.44922 495.09961 L 214.44922 359.44922 L 295.09961 359.44922 C 347.96309 359.44922 386.64341 348.79826 408.58203 324.65625 C 430.52066 300.51424 441.44922 271.31464 441.44922 238.19922 C 441.44922 219.053 437.50114 200.75892 429.39453 184.21094 C 421.38974 167.771 410.48947 154.46393 396.75586 144.96484 C 383.13572 135.54425 366.6782 129.43073 347.72266 126.21484 C 333.84133 123.82894 315.27992 122.65039 291 122.65039 L 155 122.65039 z M 214.55078 188.15039 L 295.19922 188.15039 C 316.3506 188.15039 331.116 189.50342 336.74805 190.9668 C 346.63722 193.71692 354.21034 199.01066 360.41797 207.83203 C 366.57577 216.58259 369.75 227.0165 369.75 240.09961 C 369.75 258.6052 364.52678 270.93379 354.21094 280.16406 C 344.12987 288.83869 325.01653 294.65039 295.69922 294.65039 L 214.55078 294.65039 L 214.55078 188.15039 z " mix-blend-mode="normal" solid-color="#000000" opacity="0.8" color-interpolation-filters="linearRGB" filter-gaussianBlur-deviation="0" color="#000000" image-rendering="auto" color-rendering="auto" stroke-width="64" isolation="auto" color-interpolation="sRGB" solid-opacity="1" fill="none" stroke-linejoin="round" filter-blend-mode="normal" stroke="#ffffff" shape-rendering="auto"/>
 <path d="M 155 122.65039 C 148.73213 122.65123 143.65123 127.73213 143.65039 134 L 143.65039 495 C 143.65057 500.20836 147.1943 504.74915 151.29688 505.59961 L 203.09961 506.44922 C 209.36748 506.44838 214.44838 501.36748 214.44922 495.09961 L 214.44922 359.44922 L 295.09961 359.44922 C 347.96309 359.44922 386.64341 348.79826 408.58203 324.65625 C 430.52066 300.51424 441.44922 271.31464 441.44922 238.19922 C 441.44922 219.053 437.50114 200.75892 429.39453 184.21094 C 421.38974 167.771 410.48947 154.46393 396.75586 144.96484 C 383.13572 135.54425 366.6782 129.43073 347.72266 126.21484 C 333.84133 123.82894 315.27992 122.65039 291 122.65039 L 155 122.65039 z M 214.55078 188.15039 L 295.19922 188.15039 C 316.3506 188.15039 331.116 189.50342 336.74805 190.9668 C 346.63722 193.71692 354.21034 199.01066 360.41797 207.83203 C 366.57577 216.58259 369.75 227.0165 369.75 240.09961 C 369.75 258.6052 364.52678 270.93379 354.21094 280.16406 C 344.12987 288.83869 325.01653 294.65039 295.69922 294.65039 L 214.55078 294.65039 L 214.55078 188.15039 z " id="path4136" fill="#0092da"/>
</svg>

<?xml version="1.0" encoding="UTF-8"?>
<svg width="580" height="580" version="1.0" xmlns="http://www.w3.org/2000/svg">
<path id="b" d="m155 122.65c-6.2679 8.4e-4 -11.349 5.0817-11.35 11.35v361c1.8e-4 5.2084 3.5439 9.7492 7.6465 10.6l51.803 0.84961c6.2679-8.4e-4 11.349-5.0817 11.35-11.35v-135.65h80.65c52.863 0 91.544-10.651 113.48-34.793 21.939-24.142 32.867-53.342 32.867-86.457 0-19.146-3.9481-37.44-12.055-53.988-8.0048-16.44-18.905-29.747-32.639-39.246-13.62-9.4206-30.078-15.534-49.033-18.75-13.881-2.3859-32.443-3.5644-56.723-3.5644h-136zm59.551 65.5h80.648c21.151 0 35.917 1.353 41.549 2.8164 9.8892 2.7501 17.462 8.0439 23.67 16.865 6.1578 8.7506 9.332 19.184 9.332 32.268 0 18.506-5.2232 30.834-15.539 40.064-10.081 8.6746-29.194 14.486-58.512 14.486h-81.148v-106.5z" color="#000000" color-rendering="auto" fill="none" image-rendering="auto" opacity=".8" shape-rendering="auto" solid-color="#000000" stroke="#fff" stroke-linejoin="round" stroke-width="64" filter-blend-mode="normal" filter-gaussianBlur-deviation="0" isolation="auto" mix-blend-mode="normal"/>
<path id="a" d="m155 122.65c-6.2679 8.4e-4 -11.349 5.0817-11.35 11.35v361c1.8e-4 5.2084 3.5439 9.7492 7.6465 10.6l51.803 0.84961c6.2679-8.4e-4 11.349-5.0817 11.35-11.35v-135.65h80.65c52.863 0 91.544-10.651 113.48-34.793 21.939-24.142 32.867-53.342 32.867-86.457 0-19.146-3.9481-37.44-12.055-53.988-8.0048-16.44-18.905-29.747-32.639-39.246-13.62-9.4206-30.078-15.534-49.033-18.75-13.881-2.3859-32.443-3.5644-56.723-3.5644h-136zm59.551 65.5h80.648c21.151 0 35.917 1.353 41.549 2.8164 9.8892 2.7501 17.462 8.0439 23.67 16.865 6.1578 8.7506 9.332 19.184 9.332 32.268 0 18.506-5.2232 30.834-15.539 40.064-10.081 8.6746-29.194 14.486-58.512 14.486h-81.148v-106.5z" fill="#0092da"/>
</svg>
